X:190
T:Willie was a Wanton Wag
R:Reel
M:C|
L:1/8
K:D % 2 sharps
A|"D"F2A2 A2BC|"D"dcde "G"dBAG|"D"F2A2 A2ef|"Em"gfed "G"B3A|\
"D"F2A2 A2Bc|"D"dcde "G"dBCG|"D"F2A2 "A7"A2g2|"D"fa"A"ec "D"d3:||:g\
"D"f2ga "A"e3f|"G"dcde "Em"gfed|"D"fgaf "A"e2ef|"Em"gfed "G"B3g|\
"D"fagf "A7"egfe|"Bm"dcde "D"fefg|"A7"a2A2 A2g2|"D"fa"A"ec|"D"fa"A"ec "D"d3:||


%  <A name="D1X191"></A>
